X:1
T:Title
%%score { ( 1 4 ) | ( 2 3 ) }
L:1/8
Q:1/4=100
M:4/4
K:G
V:1 treble nm="Grand Piano"
V:4 treble 
V:2 bass 
V:3 bass 
V:1
 [DBd]2 [DB]2 [DB]2 [CA]G | z4 [CE]4 | D2 A2 A2 GF | G2 A2 [DB]4 | [DBd]2 [DB]B [DB]2 [CA][DG] | %5
w: W.~A.~Post * * * *|||||
 [EA]2 [A,CE]2 z2 G,2 | D2 GA B2 d2 | A2 B2 [G,B,G]4 | [Bd]4 [DGB]4 | [Ac]4 [FA]4 | %10
w: |||||
 [DB]3 [G,DG] [G,CE]2 [CEA]2 | [D-G]4 [DF]4 | [B,D]2 [B,G]B [Dd]2 B2 | z4 E4 | D2 c2 B3 A | %15
w: |||||
 [B,G]6 z2 |] %16
w: |
V:2
 z4 z2 [D,G,]2 | C,2 E,2 C,2 E,2 | [D,C]2 [F,A,C]2 [D,C]2 [A,B,]A, | [G,B,]2 [D,F,C]2 [G,,G,]4 | %4
 z2 [D,G,]2 z4 | C,2 E,2 C,2 E,2 | [D,G,B,]2 B,C [D,G,D]2 B,2 | [D,F,C]2 [D,F,D]2 G,,4 | %8
 G,,B,,D,G, B,2 G,2 | D,,D,F,A, D2 D,2 | G,3 B,, C,2 A,,2 | z2 _B,2 D,C,B,,A,, | %12
 G,,2 z D B,,2 [D,G,D]2 | C2- [E,A,C]2 C2- [E,C]2 | [D,F,C]2 [D,F,E]2 [D,G,D]3 [D,F,C] | %15
 [G,,G,]6 z2 |] %16
V:3
 G,,2 [D,G,]2 G,,2 z B, | x8 | z4 z2 F,2 | x8 | G,,2 z D G,,2 A,,B,, | x8 | x8 | x8 | x8 | x8 | %10
 x8 | D,4 z4 | z2 D,2 z4 | C,2 z2 C,2 z2 | x8 | x8 |] %16
V:4
 x8 | [CA]2 [A,CE]2 z2 G,2 | x8 | x8 | x8 | z4 [CE]4 | x8 | x8 | x8 | x8 | x8 | B,2 z2 .A,2 z2 | %12
 z2 G,2 z4 | A2 E2 z2 G,2 | x8 | x8 |] %16

